img/fb_b.svg

<svg width="100%" height="100%" viewBox="0 0 89 88" fill="none" xmlns="http://www.w3.org/2000/svg">
<rect x="2.31982" y="2.14502" width="84.2899" height="84.2899" fill="black" stroke="black" stroke-width="3"/>
<path d="M50.1371 29.0712C51.1064 29.0712 52.1179 29.1555 53.2558 29.1976V26.8797C51.9072 26.7111 50.685 26.6689 49.6313 26.6689C44.3211 26.6689 42.0874 28.144 42.0874 34.0022V36.1094H36.2293V38.4695H42.0874V58.1934H45.1218V38.4695H52.4972V36.1094H45.1218V34.3393C45.1218 30.3777 46.1333 29.0712 50.1371 29.0712Z" fill="white"/>
</svg>

<svg viewBox="0 0 89 88" fill="none" xmlns="http://www.w3.org/2000/svg"><path fill="#000" stroke="#000" stroke-width="3" d="M2.32 2.145h84.29v84.29H2.32z"/><path d="M50.137 29.071c.97 0 1.98.084 3.119.127V26.88a28.975 28.975 0 0 0-3.625-.211c-5.31 0-7.544 1.475-7.544 7.333v2.107H36.23v2.36h5.858v19.724h3.035V38.47h7.375v-2.36h-7.375v-1.77c0-3.961 1.011-5.268 5.015-5.268z" fill="#fff"/></svg>
